X: 20748
T: Johnny Gorman's
R: barndance
M: 4/4
K: Gmajor
D3E G3A|B2 BA ~B3c|d2 ge dBBA|GEED EFGE|
DB,DE GFGA|B2 BA ~B3c|d2 ge dBAB|1 G2 g2 g2 GE:|2 G2 g2 g3a||
bagb a2 fa|gfeg dcBc|d2 ge dBAB|GEED Eega|
bagb a2 fa|gfeg dcBc|d2 ge dBAB|1 G2 g2 g3a:|2 [G6G,6] GE||

